;START_OF_HEADER
;HEADER_VERSION:0.1
;FLAVOR:Griffin
;GENERATOR.NAME:Cura_SteamEngine
;GENERATOR.VERSION:4.6.1
;GENERATOR.BUILD_DATE:2020-04-29
;TARGET_MACHINE.NAME:Ultimaker S5
;EXTRUDER_TRAIN.0.INITIAL_TEMPERATURE:205
;EXTRUDER_TRAIN.0.MATERIAL.VOLUME_USED:50287
;EXTRUDER_TRAIN.0.MATERIAL.GUID:506c9f0d-e3aa-4bd4-b2d2-23e2425b1aa9
;EXTRUDER_TRAIN.0.NOZZLE.DIAMETER:0.4
;EXTRUDER_TRAIN.0.NOZZLE.NAME:AA 0.4
;BUILD_PLATE.TYPE:glass
;BUILD_PLATE.INITIAL_TEMPERATURE:60
;BUILD_VOLUME.TEMPERATURE:28
;PRINT.TIME:15378
;PRINT.GROUPS:1
;PRINT.SIZE.MIN.X:130.57
;PRINT.SIZE.MIN.Y:85.57
;PRINT.SIZE.MIN.Z:0.2
;PRINT.SIZE.MAX.X:199.43
;PRINT.SIZE.MAX.Y:154.43
;PRINT.SIZE.MAX.Z:100
;END_OF_HEADER
;Generated with Cura_SteamEngine 4.6.1
T0
M82 ;absolute extrusion mode

G92 E0
M109 S205
G280 S1
G0 Z20.001
G1 F1500 E-6.5
;LAYER_COUNT:500
;LAYER:0
M107
M204 S625
M205 X10 Y10
G1 F600 Z2.2
G0 F2571.4 X198.454 Y151.047 Z2.2
M204 S500
M205 X5 Y5
;TYPE:SKIRT
G1 F600 Z0.2
G1 F1500 E0
G1 F1200 X198.039 Y151.665 E0.0098
G1 X197.56 Y152.235 E0.01961
G1 X197.023 Y152.75 E0.0294
G1 X196.434 Y153.205 E0.0392
G1 X195.8 Y153.594 E0.049
G1 X195.127 Y153.913 E0.0588
G1 X194.424 Y154.158 E0.06861
G1 X193.699 Y154.326 E0.07841
G1 X192.5 Y154.43 E0.09425
G1 X137.5 Y154.43 E0.81846
G1 X136.757 Y154.39 E0.82826
G1 X136.022 Y154.271 E0.83806
G1 X135.304 Y154.073 E0.84787
G1 X134.612 Y153.8 E0.85766
G1 X133.953 Y153.454 E0.86746
G1 X133.335 Y153.039 E0.87727
G1 X132.765 Y152.56 E0.88707
G1 X132.25 Y152.023 E0.89687
G1 X131.795 Y151.434 E0.90667
G1 X131.406 Y150.8 E0.91646
G1 X131.087 Y150.127 E0.92627
G1 X130.842 Y149.424 E0.93607
G1 X130.674 Y148.699 E0.94587
G1 X130.57 Y147.5 E0.96172
G1 X130.57 Y92.5 E1.68592
G1 X130.61 Y91.757 E1.69572
G1 X130.729 Y91.022 E1.70552
G1 X130.927 Y90.304 E1.71533
G1 X131.2 Y89.612 E1.72513
G1 X131.546 Y88.953 E1.73493
G1 X131.961 Y88.335 E1.74473
G1 X132.44 Y87.765 E1.75453
G1 X132.977 Y87.25 E1.76433
G1 X133.566 Y86.795 E1.77413
G1 X134.2 Y86.406 E1.78392
G1 X134.873 Y86.087 E1.79373
G1 X135.576 Y85.842 E1.80353
G1 X136.301 Y85.674 E1.81333
G1 X137.5 Y85.57 E1.82918
G1 X192.5 Y85.57 E2.55339
G1 X193.978 Y85.729 E2.57296
G1 X194.696 Y85.927 E2.58277
G1 X195.388 Y86.2 E2.59256
G1 X196.047 Y86.546 E2.60236
G1 X196.665 Y86.961 E2.61217
G1 X197.235 Y87.44 E2.62197
G1 X197.75 Y87.977 E2.63177
G1 X198.205 Y88.566 E2.64157
G1 X198.594 Y89.2 E2.65136
G1 X198.913 Y89.873 E2.66117
G1 X199.158 Y90.576 E2.67097
G1 X199.326 Y91.301 E2.68077
G1 X199.43 Y92.5 E2.69662
G1 X199.43 Y147.5 E3.42082
G1 X199.39 Y148.243 E3.43062
G1 X199.271 Y148.978 E3.44042
G1 X199.073 Y149.696 E3.45023
G1 X198.8 Y150.388 E3.46003
G1 X198.454 Y151.047 E3.46983
M204 S625
M205 X10 Y10
G0 F2571.4 X198.035 Y150.927
M204 S500
M205 X5 Y5
G1 F1200 X197.622 Y151.518 E3.47932
G1 X197.146 Y152.06 E3.48882
G1 X196.613 Y152.546 E3.49832
G1 X196.029 Y152.97 E3.50782
G1 X195.402 Y153.327 E3.51732
G1 X194.74 Y153.613 E3.52682
G1 X194.05 Y153.823 E3.53631
G1 X193.341 Y153.955 E3.54581
G1 X192.5 Y154.01 E3.55691
G1 X137.5 Y154.01 E4.28111
G1 X136.78 Y153.97 E4.29061
G1 X136.068 Y153.851 E4.30011
G1 X135.374 Y153.653 E4.30962
G1 X134.707 Y153.38 E4.31911
G1 X134.073 Y153.035 E4.32861
G1 X133.482 Y152.622 E4.3381
G1 X132.94 Y152.146 E4.3476
G1 X132.454 Y151.613 E4.3571
G1 X132.03 Y151.029 E4.3666
G1 X131.673 Y150.402 E4.3761
G1 X131.387 Y149.74 E4.3856
G1 X131.177 Y149.05 E4.3951
G1 X131.045 Y148.341 E4.40459
G1 X130.99 Y147.5 E4.41569
G1 X130.99 Y92.5 E5.1399
G1 X131.03 Y91.78 E5.14939
G1 X131.149 Y91.068 E5.1589
G1 X131.347 Y90.374 E5.1684
G1 X131.62 Y89.707 E5.17789
G1 X131.965 Y89.073 E5.18739
G1 X132.378 Y88.482 E5.19689
G1 X132.854 Y87.94 E5.20638
G1 X133.387 Y87.454 E5.21588
G1 X133.971 Y87.03 E5.22538
G1 X134.598 Y86.673 E5.23489
G1 X135.26 Y86.387 E5.24438
G1 X135.95 Y86.177 E5.25388
G1 X136.659 Y86.045 E5.26337
G1 X137.5 Y85.99 E5.27447
G1 X192.5 Y85.99 E5.99868
G1 X193.932 Y86.149 E6.01765
G1 X194.626 Y86.347 E6.02715
G1 X195.293 Y86.62 E6.03664
G1 X195.927 Y86.965 E6.04615
G1 X196.518 Y87.378 E6.05564
G1 X197.06 Y87.854 E6.06514
G1 X197.546 Y88.387 E6.07464
G1 X197.97 Y88.971 E6.08414
G1 X198.327 Y89.598 E6.09364
G1 X198.613 Y90.26 E6.10313
G1 X198.823 Y90.95 E6.11263
G1 X198.955 Y91.659 E6.12213
G1 X199.01 Y92.5 E6.13322
G1 X199.01 Y147.5 E6.85743
G1 X198.97 Y148.22 E6.86693
G1 X198.851 Y148.932 E6.87643
G1 X198.653 Y149.626 E6.88593
G1 X198.38 Y150.293 E6.89542
G1 X198.035 Y150.927 E6.90493
M204 S625
M205 X10 Y10
G0 F2571.4 X197.617 Y150.802
M204 S500
M205 X5 Y5
G1 F1200 X197.205 Y151.366 E6.91413
G1 X196.732 Y151.879 E6.92331
G1 X196.204 Y152.334 E6.93249
G1 X195.627 Y152.726 E6.94168
G1 X195.008 Y153.049 E6.95087
G1 X194.357 Y153.3 E6.96006
G1 X193.681 Y153.474 E6.96925
G1 X192.99 Y153.57 E6.97843
G1 X137.5 Y153.59 E7.70909
G1 X136.803 Y153.55 E7.71828
G1 X136.116 Y153.431 E7.72747
G1 X135.447 Y153.233 E7.73665
G1 X134.804 Y152.961 E7.74585
G1 X134.198 Y152.617 E7.75502
G1 X133.634 Y152.205 E7.76422
G1 X133.121 Y151.732 E7.77341
G1 X132.666 Y151.204 E7.78258
G1 X132.274 Y150.627 E7.79177
G1 X131.951 Y150.008 E7.80096
G1 X131.7 Y149.357 E7.81015
G1 X131.526 Y148.681 E7.81934
G1 X131.43 Y147.99 E7.82853
G1 X131.41 Y92.5 E8.55918
G1 X131.45 Y91.803 E8.56838
G1 X131.569 Y91.116 E8.57756
G1 X131.767 Y90.447 E8.58674
G1 X132.039 Y89.804 E8.59594
G1 X132.383 Y89.198 E8.60511
G1 X132.795 Y88.634 E8.61431
G1 X133.268 Y88.121 E8.6235
G1 X133.796 Y87.666 E8.63268
G1 X134.373 Y87.274 E8.64186
G1 X134.992 Y86.951 E8.65105
G1 X135.643 Y86.7 E8.66024
G1 X136.319 Y86.526 E8.66943
G1 X137.01 Y86.43 E8.67862
G1 X192.5 Y86.41 E9.40928
G1 X193.884 Y86.569 E9.42762
G1 X194.553 Y86.767 E9.43681
G1 X195.196 Y87.039 E9.446
G1 X195.802 Y87.383 E9.45518
G1 X196.366 Y87.795 E9.46437
G1 X196.879 Y88.268 E9.47356
G1 X197.334 Y88.796 E9.48274
G1 X197.726 Y89.373 E9.49192
G1 X198.049 Y89.992 E9.50112
G1 X198.3 Y90.643 E9.5103
G1 X198.474 Y91.319 E9.5195
G1 X198.57 Y92.01 E9.52868
G1 X198.59 Y147.5 E10.25934
G1 X198.55 Y148.197 E10.26853
G1 X198.431 Y148.884 E10.27771
G1 X198.233 Y149.553 E10.2869
G1 X197.961 Y150.196 E10.29609
G1 X197.617 Y150.802 E10.30527
M204 S625
M205 X10 Y10
G0 F2571.4 X197.199 Y150.673
M204 S500
M205 X5 Y5
G1 F1200 X196.79 Y151.208 E10.31414
G1 X196.32 Y151.69 E10.323
G1 X195.796 Y152.113 E10.33187
G1 X195.226 Y152.472 E10.34074
G1 X194.618 Y152.76 E10.3496
G1 X193.98 Y152.974 E10.35846
G1 X193.32 Y153.11 E10.36733
G1 X192.5 Y153.17 E10.37816
G1 X137.5 Y153.17 E11.10236
G1 X136.828 Y153.13 E11.11123
G1 X136.165 Y153.011 E11.1201
G1 X135.522 Y152.814 E11.12895
G1 X134.906 Y152.542 E11.13782
G1 X134.327 Y152.199 E11.14668
G1 X133.792 Y151.79 E11.15555
G1 X133.31 Y151.32 E11.16441
G1 X132.887 Y150.796 E11.17328
G1 X132.528 Y150.226 E11.18215
G1 X132.24 Y149.618 E11.19101
G1 X132.026 Y148.98 E11.19987
G1 X131.89 Y148.32 E11.20874
G1 X131.83 Y147.5 E11.21957
G1 X131.83 Y92.5 E11.94377
G1 X131.87 Y91.828 E11.95264
G1 X131.989 Y91.165 E11.96151
G1 X132.186 Y90.522 E11.97036
G1 X132.458 Y89.906 E11.97923
G1 X132.801 Y89.327 E11.98809
G1 X133.21 Y88.792 E11.99696
G1 X133.68 Y88.31 E12.00582
G1 X134.204 Y87.887 E12.01469
G1 X134.774 Y87.528 E12.02356
G1 X135.382 Y87.24 E12.03242
G1 X136.02 Y87.026 E12.04128
G1 X136.68 Y86.89 E12.05015
G1 X137.5 Y86.83 E12.06098
G1 X192.5 Y86.83 E12.78518
G1 X193.835 Y86.989 E12.80289
G1 X194.478 Y87.186 E12.81174
G1 X195.094 Y87.458 E12.82061
G1 X195.673 Y87.801 E12.82947
G1 X196.208 Y88.21 E12.83834
G1 X196.69 Y88.68 E12.8472
G1 X197.113 Y89.204 E12.85607
G1 X197.472 Y89.774 E12.86494
G1 X197.76 Y90.382 E12.8738
G1 X197.974 Y91.02 E12.88266
G1 X198.11 Y91.68 E12.89153
G1 X198.17 Y92.5 E12.90236
G1 X198.17 Y147.5 E13.62656
G1 X198.13 Y148.172 E13.63543
G1 X198.011 Y148.835 E13.6443
G1 X197.814 Y149.478 E13.65315
G1 X197.542 Y150.094 E13.66202
G1 X197.199 Y150.673 E13.67088
M204 S625
M205 X10 Y10
G0 F2571.4 X197.123 Y149.989
M204 S500
M205 X5 Y5
G1 F1200 X196.781 Y150.539 E13.67941
G1 X196.374 Y151.043 E13.68794
G1 X195.908 Y151.493 E13.69647
G1 X195.391 Y151.882 E13.70499
G1 X194.829 Y152.205 E13.71352
G1 X194.232 Y152.456 E13.72205
G1 X193.608 Y152.632 E13.73059
G1 X192.968 Y152.729 E13.73911
G1 X137.5 Y152.75 E14.46948
G1 X136.853 Y152.71 E14.47801
G1 X136.217 Y152.591 E14.48653
G1 X135.6 Y152.394 E14.49506
G1 X135.011 Y152.123 E14.5036
G1 X134.461 Y151.781 E14.51213
G1 X133.957 Y151.374 E14.52066
G1 X133.507 Y150.908 E14.52919
G1 X133.118 Y150.391 E14.53771
G1 X132.795 Y149.829 E14.54624
G1 X132.544 Y149.232 E14.55477
G1 X132.368 Y148.608 E14.56331
G1 X132.271 Y147.968 E14.57183
G1 X132.25 Y92.5 E15.3022
G1 X132.29 Y91.853 E15.31073
G1 X132.409 Y91.217 E15.31925
G1 X132.606 Y90.6 E15.32778
G1 X132.877 Y90.011 E15.33632
G1 X133.219 Y89.461 E15.34485
G1 X133.626 Y88.957 E15.35338
G1 X134.092 Y88.507 E15.36191
G1 X134.609 Y88.118 E15.37043
G1 X135.171 Y87.795 E15.37896
G1 X135.768 Y87.544 E15.38749
G1 X136.392 Y87.368 E15.39603
G1 X137.032 Y87.271 E15.40455
G1 X192.5 Y87.25 E16.13492
G1 X193.783 Y87.409 E16.15194
G1 X194.4 Y87.606 E16.16047
G1 X194.989 Y87.877 E16.16901
G1 X195.539 Y88.219 E16.17754
G1 X196.043 Y88.626 E16.18607
G1 X196.493 Y89.092 E16.1946
G1 X196.882 Y89.609 E16.20312
G1 X197.205 Y90.171 E16.21165
G1 X197.456 Y90.768 E16.22018
G1 X197.632 Y91.392 E16.22871
G1 X197.729 Y92.032 E16.23724
G1 X197.75 Y147.5 E16.96761
G1 X197.71 Y148.147 E16.97614
G1 X197.591 Y148.783 E16.98466
G1 X197.394 Y149.4 E16.99319
G1 X197.123 Y149.989 E17.00173
M204 S625
M205 X10 Y10
G0 F2571.4 X196.704 Y149.878
M204 S500
M205 X5 Y5
G1 F1200 X196.364 Y150.398 E17.00991
G1 X195.96 Y150.87 E17.01809
G1 X195.498 Y151.287 E17.02628
G1 X194.988 Y151.64 E17.03445
G1 X194.436 Y151.925 E17.04263
G1 X193.851 Y152.137 E17.05082
G1 X193.245 Y152.272 E17.059
G1 X192.5 Y152.33 E17.06884
G1 X137.5 Y152.33 E17.79305
G1 X136.88 Y152.29 E17.80123
G1 X136.27 Y152.171 E17.80941
G1 X135.681 Y151.974 E17.81759
G1 X135.122 Y151.704 E17.82576
G1 X134.602 Y151.364 E17.83394
G1 X134.13 Y150.96 E17.84212
G1 X133.713 Y150.498 E17.85032
G1 X133.36 Y149.988 E17.85848
G1 X133.075 Y149.436 E17.86666
G1 X132.863 Y148.851 E17.87486
G1 X132.728 Y148.245 E17.88303
G1 X132.67 Y147.5 E17.89287
G1 X132.67 Y92.5 E18.61708
G1 X132.71 Y91.88 E18.62526
G1 X132.829 Y91.27 E18.63344
G1 X133.026 Y90.681 E18.64162
G1 X133.296 Y90.122 E18.6498
G1 X133.636 Y89.602 E18.65798
G1 X134.04 Y89.13 E18.66616
G1 X134.502 Y88.713 E18.67435
G1 X135.012 Y88.36 E18.68252
G1 X135.564 Y88.075 E18.6907
G1 X136.149 Y87.863 E18.69889
G1 X136.755 Y87.728 E18.70707
G1 X137.5 Y87.67 E18.71691
G1 X192.5 Y87.67 E19.44111
G1 X193.73 Y87.829 E19.45744
G1 X194.319 Y88.026 E19.46562
G1 X194.878 Y88.296 E19.4738
G1 X195.398 Y88.636 E19.48198
G1 X195.87 Y89.04 E19.49016
G1 X196.287 Y89.502 E19.49835
G1 X196.64 Y90.012 E19.50652
G1 X196.925 Y90.564 E19.5147
G1 X197.137 Y91.149 E19.52289
G1 X197.272 Y91.755 E19.53107
G1 X197.33 Y92.5 E19.54091
G1 X197.33 Y147.5 E20.26511
G1 X197.29 Y148.12 E20.27329
G1 X197.171 Y148.73 E20.28148
G1 X196.974 Y149.319 E20.28966
G1 X196.704 Y149.878 E20.29783
M204 S625
M205 X10 Y10
G0 F2571.4 X196.285 Y149.763
M204 S500
M205 X5 Y5
G1 F1200 X195.947 Y150.251 E20.30565
G1 X195.546 Y150.689 E20.31346
G1 X195.09 Y151.069 E20.32128
G1 X194.587 Y151.385 E20.3291
G1 X194.047 Y151.63 E20.33691
G1 X193.478 Y151.8 E20.34473
G1 X192.892 Y151.893 E20.35254
G1 X137.5 Y151.91 E21.08191
G1 X136.908 Y151.87 E21.08972
G1 X136.326 Y151.751 E21.09755
G1 X135.766 Y151.555 E21.10536
G1 X135.237 Y151.285 E21.11318
G1 X134.749 Y150.947 E21.12099
G1 X134.311 Y150.546 E21.12881
G1 X133.931 Y150.09 E21.13663
G1 X133.615 Y149.587 E21.14445
G1 X133.37 Y149.047 E21.15226
G1 X133.2 Y148.478 E21.16008
G1 X133.107 Y147.892 E21.16789
G1 X133.09 Y92.5 E21.89726
G1 X133.13 Y91.908 E21.90507
G1 X133.249 Y91.326 E21.91289
G1 X133.445 Y90.766 E21.92071
G1 X133.715 Y90.237 E21.92853
G1 X134.053 Y89.749 E21.93634
G1 X134.454 Y89.311 E21.94416
G1 X134.91 Y88.931 E21.95198
G1 X135.413 Y88.615 E21.9598
G1 X135.953 Y88.37 E21.96761
G1 X136.522 Y88.2 E21.97543
G1 X137.108 Y88.107 E21.98324
G1 X192.5 Y88.09 E22.71261
G1 X193.674 Y88.249 E22.72821
G1 X194.234 Y88.445 E22.73602
G1 X194.763 Y88.715 E22.74384
G1 X195.251 Y89.053 E22.75166
G1 X195.689 Y89.454 E22.75948
G1 X196.069 Y89.91 E22.76729
G1 X196.385 Y90.413 E22.77511
G1 X196.63 Y90.953 E22.78292
G1 X196.8 Y91.522 E22.79074
G1 X196.893 Y92.108 E22.79856
G1 X196.91 Y147.5 E23.52792
G1 X196.87 Y148.092 E23.53574
G1 X196.751 Y148.674 E23.54356
G1 X196.555 Y149.234 E23.55137
G1 X196.285 Y149.763 E23.55919
M204 S625
M205 X10 Y10
G0 F2571.4 X195.867 Y149.641
M204 S500
M205 X5 Y5
G1 F1200 X195.531 Y150.095 E23.56663
G1 X195.134 Y150.497 E23.57407
G1 X194.685 Y150.839 E23.5815
G1 X194.191 Y151.114 E23.58894
G1 X193.664 Y151.316 E23.59638
G1 X193.114 Y151.442 E23.6038
G1 X192.5 Y151.49 E23.61191
G1 X137.5 Y151.49 E24.33612
G1 X136.937 Y151.45 E24.34355
G1 X136.385 Y151.331 E24.35099
G1 X135.855 Y151.135 E24.35843
G1 X135.359 Y150.867 E24.36585
G1 X134.905 Y150.531 E24.37329
G1 X134.503 Y150.134 E24.38073
G1 X134.161 Y149.685 E24.38816
G1 X133.886 Y149.191 E24.39561
G1 X133.684 Y148.664 E24.40304
G1 X133.558 Y148.114 E24.41047
G1 X133.51 Y147.5 E24.41858
G1 X133.51 Y92.5 E25.14278
G1 X133.55 Y91.937 E25.15021
G1 X133.669 Y91.385 E25.15765
G1 X133.865 Y90.855 E25.16509
G1 X134.133 Y90.359 E25.17251
G1 X134.469 Y89.905 E25.17995
G1 X134.866 Y89.503 E25.18739
G1 X135.315 Y89.161 E25.19482
G1 X135.809 Y88.886 E25.20227
G1 X136.336 Y88.684 E25.2097
G1 X136.886 Y88.558 E25.21713
G1 X137.5 Y88.51 E25.22524
G1 X192.5 Y88.51 E25.94944
G1 X193.615 Y88.669 E25.96427
G1 X194.145 Y88.865 E25.97171
G1 X194.641 Y89.133 E25.97914
G1 X195.095 Y89.469 E25.98658
G1 X195.497 Y89.866 E25.99401
G1 X195.839 Y90.315 E26.00145
G1 X196.114 Y90.809 E26.00889
G1 X196.316 Y91.336 E26.01632
G1 X196.442 Y91.886 E26.02375
G1 X196.49 Y92.5 E26.03186
G1 X196.49 Y147.5 E26.75607
G1 X196.45 Y148.063 E26.7635
G1 X196.331 Y148.615 E26.77094
G1 X196.135 Y149.145 E26.77838
G1 X195.867 Y149.641 E26.7858
M204 S625
M205 X10 Y10
G0 F2571.4 X195.449 Y149.513
M204 S500
M205 X5 Y5
G1 F1200 X195.115 Y149.93 E26.79283
G1 X194.724 Y150.293 E26.79986
G1 X194.282 Y150.593 E26.80689
G1 X193.801 Y150.825 E26.81393
G1 X193.29 Y150.981 E26.82096
G1 X192.5 Y151.07 E26.83143
G1 X137.5 Y151.07 E27.55563
G1 X136.967 Y151.03 E27.56267
G1 X136.447 Y150.911 E27.5697
G1 X135.95 Y150.716 E27.57673
G1 X135.487 Y150.449 E27.58376
G1 X135.07 Y150.115 E27.5908
G1 X134.707 Y149.724 E27.59782
G1 X134.407 Y149.282 E27.60486
G1 X134.175 Y148.801 E27.61189
G1 X134.019 Y148.29 E27.61893
G1 X133.93 Y147.5 E27.62939
G1 X133.93 Y92.5 E28.3536
G1 X133.97 Y91.967 E28.36064
G1 X134.089 Y91.447 E28.36766
G1 X134.284 Y90.95 E28.37469
G1 X134.551 Y90.487 E28.38173
G1 X134.885 Y90.07 E28.38876
G1 X135.276 Y89.707 E28.39579
G1 X135.718 Y89.407 E28.40282
G1 X136.199 Y89.175 E28.40985
G1 X136.71 Y89.019 E28.41689
G1 X137.5 Y88.93 E28.42736
G1 X192.5 Y88.93 E29.15156
G1 X193.553 Y89.089 E29.16559
G1 X194.05 Y89.284 E29.17262
G1 X194.513 Y89.551 E29.17965
G1 X194.93 Y89.885 E29.18669
G1 X195.293 Y90.276 E29.19371
G1 X195.593 Y90.718 E29.20075
G1 X195.825 Y91.199 E29.20778
G1 X195.981 Y91.71 E29.21482
G1 X196.07 Y92.5 E29.22528
G1 X196.07 Y147.5 E29.94949
G1 X196.03 Y148.033 E29.95653
G1 X195.911 Y148.553 E29.96355
G1 X195.716 Y149.05 E29.97058
G1 X195.449 Y149.513 E29.97762
M204 S625
M205 X10 Y10
G0 F2571.4 X195.297 Y148.95
M204 S500
M205 X5 Y5
G1 F1200 X195.031 Y149.375 E29.98422
G1 X194.701 Y149.753 E29.99083
G1 X194.316 Y150.074 E29.99743
G1 X193.884 Y150.33 E30.00404
G1 X193.417 Y150.513 E30.01065
G1 X192.928 Y150.621 E30.01724
G1 X192.5 Y150.65 E30.02289
G1 X137.5 Y150.65 E30.74709
G1 X137 Y150.61 E30.7537
G1 X136.513 Y150.491 E30.7603
G1 X136.05 Y150.297 E30.76691
G1 X135.625 Y150.031 E30.77351
G1 X135.247 Y149.701 E30.78012
G1 X134.926 Y149.316 E30.78672
G1 X134.67 Y148.884 E30.79333
G1 X134.487 Y148.417 E30.79994
G1 X134.379 Y147.928 E30.80653
G1 X134.35 Y147.5 E30.81218
G1 X134.35 Y92.5 E31.53638
G1 X134.39 Y92 E31.54299
G1 X134.509 Y91.513 E31.54959
