;START_OF_HEADER
;HEADER_VERSION:0.1
;FLAVOR:Griffin
;GENERATOR.NAME:Cura_SteamEngine
;GENERATOR.VERSION:4.6.1
;GENERATOR.BUILD_DATE:2020-04-29
;TARGET_MACHINE.NAME:Ultimaker S5
;EXTRUDER_TRAIN.0.INITIAL_TEMPERATURE:205
;EXTRUDER_TRAIN.0.MATERIAL.VOLUME_USED:54838
;EXTRUDER_TRAIN.0.MATERIAL.GUID:506c9f0d-e3aa-4bd4-b2d2-23e2425b1aa9
;EXTRUDER_TRAIN.0.NOZZLE.DIAMETER:0.4
;EXTRUDER_TRAIN.0.NOZZLE.NAME:AA 0.4
;BUILD_PLATE.TYPE:glass
;BUILD_PLATE.INITIAL_TEMPERATURE:60
;BUILD_VOLUME.TEMPERATURE:28
;PRINT.TIME:12236
;PRINT.GROUPS:1
;PRINT.SIZE.MIN.X:130.57
;PRINT.SIZE.MIN.Y:85.57
;PRINT.SIZE.MIN.Z:0.2
;PRINT.SIZE.MAX.X:199.43
;PRINT.SIZE.MAX.Y:154.43
;PRINT.SIZE.MAX.Z:99.8
;END_OF_HEADER
;Generated with Cura_SteamEngine 4.6.1
T0
M82 ;absolute extrusion mode

G92 E0
M109 S205
G280 S1
G0 Z20.001
G1 F1500 E-6.5
;LAYER_COUNT:333
;LAYER:1
M140 S60
M106 S85
M204 S1250
M205 X7.5 Y7.5
;TYPE:WALL-INNER
;MESH:50_50_100.STL
G1 F2250 X190.8 Y145.8 E72.30405
G1 X190.8 Y94.2 E73.03202
G1 X139.2 Y94.2 E73.75999
G1 X139.2 Y145.8 E74.48796
M204 S2812
M205 X30 Y30
G0 F5785.7 X139.5 Y145.5
M204 S1250
M205 X7.5 Y7.5
G1 F2250 X190.5 Y145.5 E75.20746
G1 X190.5 Y94.5 E75.92696
G1 X139.5 Y94.5 E76.64647
G1 X139.5 Y145.5 E77.36597
M204 S2812
M205 X30 Y30
G0 F5785.7 X139.825 Y145.175
M204 S1250
M205 X5 Y5
;TYPE:WALL-OUTER
G1 F2100 X190.175 Y145.175 E78.19469
G1 X190.175 Y94.825 E79.02342
G1 X139.825 Y94.825 E79.85214
G1 X139.825 Y145.175 E80.68086
M204 S2812
M205 X30 Y30
G0 F5785.7 X140.025 Y145.175
G0 X140.025 Y145.56
G0 X140.025 Y145.6
G0 X138.3 Y146.7
M204 S1250
M205 X7.5 Y7.5
;TYPE:WALL-INNER
G1 F2250 X138.3 Y93.3 E81.43422
G1 X191.7 Y93.3 E82.18759
G1 X191.7 Y146.7 E82.94095
G1 X138.3 Y146.7 E83.69431
M204 S2812
M205 X30 Y30
G0 F5785.7 X138 Y147
M204 S1250
M205 X7.5 Y7.5
G1 F2250 X138 Y93 E84.45614
G1 X192 Y93 E85.21797
G1 X192 Y147 E85.9798
G1 X138 Y147 E86.74162
M204 S2812
M205 X30 Y30
G0 F5785.7 X137.675 Y147.325
M204 S1250
M205 X5 Y5
;TYPE:WALL-OUTER
G1 F2100 X137.675 Y92.675 E87.64112
G1 X192.325 Y92.675 E88.54062
G1 X192.325 Y147.325 E89.44012
G1 X137.675 Y147.325 E90.33961
M204 S2812
M205 X30 Y30
G0 F5785.7 X137.675 Y147.125
G0 X138.06 Y146.94
G0 X138.615 Y146.385
M204 S500
M205 X5 Y5
;TYPE:SKIN
G1 F1800 X138.615 Y93.615 E91.20817
G1 X191.385 Y93.615 E92.07672
G1 X191.385 Y146.385 E92.94527
G1 X138.615 Y146.385 E93.81383
M204 S2812
M205 X30 Y30
G0 F5785.7 X138.885 Y146.115
M204 S500
M205 X5 Y5
G1 F1800 X191.115 Y146.115 E94.67349
G1 X191.115 Y93.885 E95.53316
G1 X138.885 Y93.885 E96.39283
G1 X138.885 Y146.115 E97.25249
M204 S2812
M205 X30 Y30
;MESH:NONMESH
G0 F600 X138.885 Y146.115 Z0.8
G0 F5785.7 X139.2 Y145.8
;TIME_ELAPSED:360.204760
;LAYER:2
M106 S170
M204 S2000
M205 X10 Y10
;TYPE:WALL-INNER
;MESH:50_50_100.STL
G1 F3300 X190.8 Y145.8 E97.98046
G1 X190.8 Y94.2 E98.70843
G1 X139.2 Y94.2 E99.4364
G1 X139.2 Y145.8 E100.16437
M204 S5000
M205 X50 Y50
G0 F9000 X139.5 Y145.5
M204 S2000
M205 X10 Y10
G1 F3300 X190.5 Y145.5 E100.88387
G1 X190.5 Y94.5 E101.60337
G1 X139.5 Y94.5 E102.32288
G1 X139.5 Y145.5 E103.04238
M204 S5000
M205 X50 Y50
G0 F9000 X139.825 Y145.175
M204 S2000
M205 X5 Y5
;TYPE:WALL-OUTER
G1 F3000 X190.175 Y145.175 E103.8711
G1 X190.175 Y94.825 E104.69983
G1 X139.825 Y94.825 E105.52855
G1 X139.825 Y145.175 E106.35727
M204 S5000
M205 X50 Y50
G0 F9000 X140.025 Y145.175
G0 X140.025 Y145.56
G0 X140.025 Y145.6
G0 X138.3 Y146.7
M204 S2000
M205 X10 Y10
;TYPE:WALL-INNER
G1 F3300 X138.3 Y93.3 E107.11063
G1 X191.7 Y93.3 E107.864
G1 X191.7 Y146.7 E108.61736
G1 X138.3 Y146.7 E109.37072
M204 S5000
M205 X50 Y50
G0 F9000 X138 Y147
M204 S2000
M205 X10 Y10
G1 F3300 X138 Y93 E110.13255
G1 X192 Y93 E110.89438
G1 X192 Y147 E111.65621
G1 X138 Y147 E112.41803
M204 S5000
M205 X50 Y50
G0 F9000 X137.675 Y147.325
M204 S2000
M205 X5 Y5
;TYPE:WALL-OUTER
G1 F3000 X137.675 Y92.675 E113.31753
G1 X192.325 Y92.675 E114.21703
G1 X192.325 Y147.325 E115.11653
G1 X137.675 Y147.325 E116.01602
M204 S5000
M205 X50 Y50
G0 F9000 X137.675 Y147.125
G0 X138.06 Y146.94
G0 X138.615 Y146.385
M204 S500
M205 X5 Y5
;TYPE:SKIN
G1 F2400 X138.615 Y93.615 E116.88458
G1 X191.385 Y93.615 E117.75313
G1 X191.385 Y146.385 E118.62168
G1 X138.615 Y146.385 E119.49024
M204 S5000
M205 X50 Y50
G0 F9000 X138.885 Y146.115
M204 S500
M205 X5 Y5
G1 F2400 X191.115 Y146.115 E120.3499
G1 X191.115 Y93.885 E121.20957
G1 X138.885 Y93.885 E122.06924
G1 X138.885 Y146.115 E122.9289
M204 S5000
M205 X50 Y50
;MESH:NONMESH
G0 F600 X138.885 Y146.115 Z1.1
G0 F9000 X139.2 Y145.8
;TIME_ELAPSED:395.572988
;LAYER:3
M106 S255
M204 S2000
M205 X10 Y10
;TYPE:WALL-INNER
;MESH:50_50_100.STL
G1 F3300 X190.8 Y145.8 E123.65687
G1 X190.8 Y94.2 E124.38484
G1 X139.2 Y94.2 E125.11281
G1 X139.2 Y145.8 E125.84078
M204 S5000
M205 X50 Y50
G0 F9000 X139.5 Y145.5
M204 S2000
M205 X10 Y10
G1 F3300 X190.5 Y145.5 E126.56028
G1 X190.5 Y94.5 E127.27978
G1 X139.5 Y94.5 E127.99929
G1 X139.5 Y145.5 E128.71879
M204 S5000
M205 X50 Y50
G0 F9000 X139.825 Y145.175
M204 S2000
M205 X5 Y5
;TYPE:WALL-OUTER
G1 F3000 X190.175 Y145.175 E129.54751
G1 X190.175 Y94.825 E130.37624
G1 X139.825 Y94.825 E131.20496
G1 X139.825 Y145.175 E132.03368
M204 S5000
M205 X50 Y50
G0 F9000 X140.025 Y145.175
G0 X140.025 Y145.56
G0 X140.025 Y145.6
G0 X138.3 Y146.7
M204 S2000
M205 X10 Y10
;TYPE:WALL-INNER
G1 F3300 X138.3 Y93.3 E132.78704
G1 X191.7 Y93.3 E133.54041
G1 X191.7 Y146.7 E134.29377
G1 X138.3 Y146.7 E135.04713
M204 S5000
M205 X50 Y50
G0 F9000 X138 Y147
M204 S2000
M205 X10 Y10
G1 F3300 X138 Y93 E135.80896
G1 X192 Y93 E136.57079
G1 X192 Y147 E137.33262
G1 X138 Y147 E138.09444
M204 S5000
M205 X50 Y50
G0 F9000 X137.675 Y147.325
M204 S2000
M205 X5 Y5
;TYPE:WALL-OUTER
G1 F3000 X137.675 Y92.675 E138.99394
G1 X192.325 Y92.675 E139.89344
G1 X192.325 Y147.325 E140.79293
G1 X137.675 Y147.325 E141.69243
M204 S5000
M205 X50 Y50
G0 F9000 X137.675 Y147.125
G0 X138.06 Y146.94
G0 X138.615 Y146.385
M204 S500
M205 X5 Y5
;TYPE:SKIN
G1 F2400 X138.615 Y93.615 E142.56099
G1 X191.385 Y93.615 E143.42954
G1 X191.385 Y146.385 E144.29809
G1 X138.615 Y146.385 E145.16665
M204 S5000
M205 X50 Y50
G0 F9000 X138.885 Y146.115
M204 S500
M205 X5 Y5
G1 F2400 X191.115 Y146.115 E146.02631
G1 X191.115 Y93.885 E146.88598
G1 X138.885 Y93.885 E147.74565
G1 X138.885 Y146.115 E148.60531
M204 S5000
M205 X50 Y50
;MESH:NONMESH
G0 F600 X138.885 Y146.115 Z1.4
G0 F9000 X139.2 Y145.8
;TIME_ELAPSED:430.941215
;LAYER:4
M204 S2000
M205 X10 Y10
;TYPE:WALL-INNER
;MESH:50_50_100.STL
G1 F3300 X190.8 Y145.8 E149.33328
G1 X190.8 Y94.2 E150.06125
G1 X139.2 Y94.2 E150.78922
G1 X139.2 Y145.8 E151.51719
M204 S5000
M205 X50 Y50
G0 F9000 X139.5 Y145.5
M204 S2000
M205 X10 Y10
G1 F3300 X190.5 Y145.5 E152.23669
G1 X190.5 Y94.5 E152.95619
G1 X139.5 Y94.5 E153.6757
G1 X139.5 Y145.5 E154.3952
M204 S5000
M205 X50 Y50
G0 F9000 X139.825 Y145.175
M204 S2000
M205 X5 Y5
;TYPE:WALL-OUTER
G1 F3000 X190.175 Y145.175 E155.22392
G1 X190.175 Y94.825 E156.05265
G1 X139.825 Y94.825 E156.88137
G1 X139.825 Y145.175 E157.71009
M204 S5000
M205 X50 Y50
G0 F9000 X140.025 Y145.175
G0 X140.025 Y145.56
G0 X140.025 Y145.6
G0 X138.3 Y146.7
M204 S2000
M205 X10 Y10
;TYPE:WALL-INNER
G1 F3300 X138.3 Y93.3 E158.46345
G1 X191.7 Y93.3 E159.21682
G1 X191.7 Y146.7 E159.97018
G1 X138.3 Y146.7 E160.72354
M204 S5000
M205 X50 Y50
G0 F9000 X138 Y147
M204 S2000
M205 X10 Y10
G1 F3300 X138 Y93 E161.48537
G1 X192 Y93 E162.2472
G1 X192 Y147 E163.00902
G1 X138 Y147 E163.77085
M204 S5000
M205 X50 Y50
G0 F9000 X137.675 Y147.325
M204 S2000
M205 X5 Y5
;TYPE:WALL-OUTER
G1 F3000 X137.675 Y92.675 E164.67035
G1 X192.325 Y92.675 E165.56985
G1 X192.325 Y147.325 E166.46934
G1 X137.675 Y147.325 E167.36884
M204 S5000
M205 X50 Y50
G0 F9000 X137.675 Y147.125
G0 X138.06 Y146.94
G0 X138.615 Y146.385
M204 S500
M205 X5 Y5
;TYPE:SKIN
G1 F2400 X138.615 Y93.615 E168.2374
G1 X191.385 Y93.615 E169.10595
G1 X191.385 Y146.385 E169.9745
G1 X138.615 Y146.385 E170.84306
M204 S5000
M205 X50 Y50
G0 F9000 X138.885 Y146.115
M204 S500
M205 X5 Y5
G1 F2400 X191.115 Y146.115 E171.70272
G1 X191.115 Y93.885 E172.56239
G1 X138.885 Y93.885 E173.42206
G1 X138.885 Y146.115 E174.28172
M204 S5000
M205 X50 Y50
;MESH:NONMESH
G0 F600 X138.885 Y146.115 Z1.7
G0 F9000 X139.2 Y145.8
;TIME_ELAPSED:466.309442
;LAYER:5
M204 S2000
M205 X10 Y10
;TYPE:WALL-INNER
;MESH:50_50_100.STL
G1 F3300 X190.8 Y145.8 E175.00969
G1 X190.8 Y94.2 E175.73766
G1 X139.2 Y94.2 E176.46563
G1 X139.2 Y145.8 E177.1936
M204 S5000
M205 X50 Y50
G0 F9000 X139.5 Y145.5
M204 S2000
M205 X10 Y10
G1 F3300 X190.5 Y145.5 E177.9131
G1 X190.5 Y94.5 E178.6326
G1 X139.5 Y94.5 E179.35211
G1 X139.5 Y145.5 E180.07161
M204 S5000
M205 X50 Y50
G0 F9000 X139.825 Y145.175
M204 S2000
M205 X5 Y5
;TYPE:WALL-OUTER
G1 F3000 X190.175 Y145.175 E180.90033
G1 X190.175 Y94.825 E181.72906
G1 X139.825 Y94.825 E182.55778
G1 X139.825 Y145.175 E183.3865
M204 S5000
M205 X50 Y50
G0 F9000 X140.025 Y145.175
G0 X140.025 Y145.56
G0 X140.025 Y145.6
G0 X138.3 Y146.7
M204 S2000
M205 X10 Y10
;TYPE:WALL-INNER
G1 F3300 X138.3 Y93.3 E184.13986
G1 X191.7 Y93.3 E184.89323
G1 X191.7 Y146.7 E185.64659
G1 X138.3 Y146.7 E186.39995
M204 S5000
M205 X50 Y50
G0 F9000 X138 Y147
M204 S2000
M205 X10 Y10
G1 F3300 X138 Y93 E187.16178
G1 X192 Y93 E187.92361
G1 X192 Y147 E188.68543
G1 X138 Y147 E189.44726
M204 S5000
M205 X50 Y50
G0 F9000 X137.675 Y147.325
M204 S2000
M205 X5 Y5
;TYPE:WALL-OUTER
G1 F3000 X137.675 Y92.675 E190.34676
G1 X192.325 Y92.675 E191.24626
G1 X192.325 Y147.325 E192.14575
G1 X137.675 Y147.325 E193.04525
M204 S5000
M205 X50 Y50
G0 F9000 X137.675 Y147.125
G0 X138.06 Y146.94
G0 X138.615 Y146.385
M204 S500
M205 X5 Y5
;TYPE:SKIN
G1 F2400 X138.615 Y93.615 E193.91381
G1 X191.385 Y93.615 E194.78236
G1 X191.385 Y146.385 E195.65091
G1 X138.615 Y146.385 E196.51947
M204 S5000
M205 X50 Y50
G0 F9000 X138.885 Y146.115
M204 S500
M205 X5 Y5
G1 F2400 X191.115 Y146.115 E197.37913
G1 X191.115 Y93.885 E198.2388
G1 X138.885 Y93.885 E199.09846
G1 X138.885 Y146.115 E199.95813
M204 S5000
M205 X50 Y50
;MESH:NONMESH
G0 F600 X138.885 Y146.115 Z2
G0 F9000 X139.2 Y145.8
;TIME_ELAPSED:501.677670
;LAYER:6
M204 S2000
M205 X10 Y10
;TYPE:WALL-INNER
;MESH:50_50_100.STL
G1 F3300 X190.8 Y145.8 E200.6861
G1 X190.8 Y94.2 E201.41407
G1 X139.2 Y94.2 E202.14204
G1 X139.2 Y145.8 E202.87
M204 S5000
M205 X50 Y50
G0 F9000 X139.5 Y145.5
M204 S2000
M205 X10 Y10
G1 F3300 X190.5 Y145.5 E203.58951
G1 X190.5 Y94.5 E204.30901
G1 X139.5 Y94.5 E205.02852
G1 X139.5 Y145.5 E205.74802
M204 S5000
M205 X50 Y50
G0 F9000 X139.825 Y145.175
M204 S2000
M205 X5 Y5
;TYPE:WALL-OUTER
G1 F3000 X190.175 Y145.175 E206.57674
G1 X190.175 Y94.825 E207.40547
G1 X139.825 Y94.825 E208.23419
G1 X139.825 Y145.175 E209.06291
M204 S5000
M205 X50 Y50
G0 F9000 X140.025 Y145.175
G0 X140.025 Y145.56
G0 X140.025 Y145.6
G0 X138.3 Y146.7
M204 S2000
M205 X10 Y10
;TYPE:WALL-INNER
G1 F3300 X138.3 Y93.3 E209.81627
G1 X191.7 Y93.3 E210.56964
G1 X191.7 Y146.7 E211.323
G1 X138.3 Y146.7 E212.07636
M204 S5000
M205 X50 Y50
G0 F9000 X138 Y147
M204 S2000
M205 X10 Y10
G1 F3300 X138 Y93 E212.83819
G1 X192 Y93 E213.60002
G1 X192 Y147 E214.36184
G1 X138 Y147 E215.12367
M204 S5000
M205 X50 Y50
G0 F9000 X137.675 Y147.325
M204 S2000
M205 X5 Y5
;TYPE:WALL-OUTER
G1 F3000 X137.675 Y92.675 E216.02317
G1 X192.325 Y92.675 E216.92267
G1 X192.325 Y147.325 E217.82216
G1 X137.675 Y147.325 E218.72166
M204 S5000
M205 X50 Y50
G0 F9000 X137.675 Y147.125
G0 X138.06 Y146.94
G0 X138.615 Y146.385
M204 S500
M205 X5 Y5
;TYPE:SKIN
G1 F2400 X138.615 Y93.615 E219.59021
G1 X191.385 Y93.615 E220.45877
G1 X191.385 Y146.385 E221.32732
G1 X138.615 Y146.385 E222.19588
M204 S5000
M205 X50 Y50
G0 F9000 X138.885 Y146.115
M204 S500
M205 X5 Y5
G1 F2400 X191.115 Y146.115 E223.05554
G1 X191.115 Y93.885 E223.91521
G1 X138.885 Y93.885 E224.77487
G1 X138.885 Y146.115 E225.63454
M204 S5000
M205 X50 Y50
;MESH:NONMESH
G0 F600 X138.885 Y146.115 Z2.3
G0 F9000 X139.2 Y145.8
;TIME_ELAPSED:537.045897
;LAYER:7
M204 S2000
M205 X10 Y10
;TYPE:WALL-INNER
;MESH:50_50_100.STL
G1 F3300 X190.8 Y145.8 E226.36251
G1 X190.8 Y94.2 E227.09048
G1 X139.2 Y94.2 E227.81845
G1 X139.2 Y145.8 E228.54641
M204 S5000
M205 X50 Y50
G0 F9000 X139.5 Y145.5
M204 S2000
M205 X10 Y10
G1 F3300 X190.5 Y145.5 E229.26592
G1 X190.5 Y94.5 E229.98542
G1 X139.5 Y94.5 E230.70493
G1 X139.5 Y145.5 E231.42443
M204 S5000
M205 X50 Y50
G0 F9000 X139.825 Y145.175
M204 S2000
M205 X5 Y5
;TYPE:WALL-OUTER
G1 F3000 X190.175 Y145.175 E232.25315
G1 X190.175 Y94.825 E233.08187
G1 X139.825 Y94.825 E233.9106
G1 X139.825 Y145.175 E234.73932
M204 S5000
M205 X50 Y50
G0 F9000 X140.025 Y145.175
G0 X140.025 Y145.56
G0 X140.025 Y145.6
G0 X138.3 Y146.7
M204 S2000
M205 X10 Y10
;TYPE:WALL-INNER
G1 F3300 X138.3 Y93.3 E235.49268
G1 X191.7 Y93.3 E236.24605
G1 X191.7 Y146.7 E236.99941
G1 X138.3 Y146.7 E237.75277
M204 S5000
M205 X50 Y50
G0 F9000 X138 Y147
M204 S2000
M205 X10 Y10
G1 F3300 X138 Y93 E238.5146
G1 X192 Y93 E239.27643
G1 X192 Y147 E240.03825
G1 X138 Y147 E240.80008
M204 S5000
M205 X50 Y50
G0 F9000 X137.675 Y147.325
M204 S2000
M205 X5 Y5
;TYPE:WALL-OUTER
G1 F3000 X137.675 Y92.675 E241.69958
G1 X192.325 Y92.675 E242.59908
G1 X192.325 Y147.325 E243.49857
G1 X137.675 Y147.325 E244.39807
M204 S5000
M205 X50 Y50
G0 F9000 X137.675 Y147.125
G0 X138.06 Y146.94
G0 X138.615 Y146.385
M204 S500
M205 X5 Y5
;TYPE:SKIN
G1 F2400 X138.615 Y93.615 E245.26662
G1 X191.385 Y93.615 E246.13518
G1 X191.385 Y146.385 E247.00373
G1 X138.615 Y146.385 E247.87229
M204 S5000
M205 X50 Y50
G0 F9000 X138.885 Y146.115
M204 S500
M205 X5 Y5
G1 F2400 X191.115 Y146.115 E248.73195
G1 X191.115 Y93.885 E249.59162
G1 X138.885 Y93.885 E250.45128
G1 X138.885 Y146.115 E251.31095
M204 S5000
M205 X50 Y50
;MESH:NONMESH
G0 F600 X138.885 Y146.115 Z2.6
G0 F9000 X139.2 Y145.8
;TIME_ELAPSED:572.414124
;LAYER:8
M204 S2000
M205 X10 Y10
;TYPE:WALL-INNER
;MESH:50_50_100.STL
G1 F3300 X190.8 Y145.8 E252.03892
G1 X190.8 Y94.2 E252.76689
G1 X139.2 Y94.2 E253.49486
G1 X139.2 Y145.8 E254.22282
M204 S5000
M205 X50 Y50
G0 F9000 X139.5 Y145.5
M204 S2000
M205 X10 Y10
G1 F3300 X190.5 Y145.5 E254.94233
G1 X190.5 Y94.5 E255.66183
G1 X139.5 Y94.5 E256.38134
G1 X139.5 Y145.5 E257.10084
M204 S5000
M205 X50 Y50
G0 F9000 X139.825 Y145.175
M204 S2000
M205 X5 Y5
;TYPE:WALL-OUTER
G1 F3000 X190.175 Y145.175 E257.92956
G1 X190.175 Y94.825 E258.75828
G1 X139.825 Y94.825 E259.58701
G1 X139.825 Y145.175 E260.41573
M204 S5000
M205 X50 Y50
G0 F9000 X140.025 Y145.175
G0 X140.025 Y145.56
G0 X140.025 Y145.6
G0 X138.3 Y146.7
M204 S2000
M205 X10 Y10
;TYPE:WALL-INNER
G1 F3300 X138.3 Y93.3 E261.16909
G1 X191.7 Y93.3 E261.92246
G1 X191.7 Y146.7 E262.67582
G1 X138.3 Y146.7 E263.42918
M204 S5000
M205 X50 Y50
G0 F9000 X138 Y147
M204 S2000
M205 X10 Y10
G1 F3300 X138 Y93 E264.19101
G1 X192 Y93 E264.95284
G1 X192 Y147 E265.71466
G1 X138 Y147 E266.47649
M204 S5000
M205 X50 Y50
G0 F9000 X137.675 Y147.325
M204 S2000
M205 X5 Y5
;TYPE:WALL-OUTER
G1 F3000 X137.675 Y92.675 E267.37599
G1 X192.325 Y92.675 E268.27549
G1 X192.325 Y147.325 E269.17498
G1 X137.675 Y147.325 E270.07448
M204 S5000
M205 X50 Y50
G0 F9000 X137.675 Y147.125
G0 X138.06 Y146.94
G0 X138.615 Y146.385
M204 S500
M205 X5 Y5
;TYPE:SKIN
G1 F2400 X138.615 Y93.615 E270.94303
G1 X191.385 Y93.615 E271.81159
G1 X191.385 Y146.385 E272.68014
G1 X138.615 Y146.385 E273.5487
M204 S5000
M205 X50 Y50
G0 F9000 X138.885 Y146.115
M204 S500
M205 X5 Y5
G1 F2400 X191.115 Y146.115 E274.40836
G1 X191.115 Y93.885 E275.26803
G1 X138.885 Y93.885 E276.12769
